!!!!SEGMENT: pl-kozmzk--mzk-m-346--007_walczynski-franciszek--cantantibus-organis-andantino.krn
!!!cenid: 18xx:2802
!!!COM: Walczyński, Franciszek
!!!COM-rismid: pe30021989
!!!CDT: ~1852-1937
!!!CNT: Polish
!!!OTL: Cantantibus organis – Andantino
!!!PDT: 1898
!!!AGN: Secular
!!!SMS-siglum: PL-KOZmzk
!!!SMS-shelfmark: mzk/m/346
!!!SMS-shelfwork: 007 G
!!!SMS-variant:
!!!SMS-altvar:
!!!NIFC-rismid: 1001109069
!!!URL-scan: https://repozytorium.nifc.pl/islandora/object/pl-kozmzk%3A7453/datastream/PDF/view
!!!ONB-nifc:
!!!OMD:Andantino.
**kern	**kern	**dynam
*part2	*part1	*part1
*staff2	*staff1	*
*I"[Organo]	*	*
*clefF4	*clefG2	*
*k[f#]	*k[f#]	*
*G:	*G:	*
*M4/4	*M4/4	*
*met(c)	*met(c)	*
=1	=1	=1
!	!	!LO:DY:b=2:rj
4GG'/	1r	p
4D'\	.	.
(8E\L	.	.
8F#\	.	.
8G\	.	.
8A\J	.	.
=2	=2	=2
2B\)	4r	.
!	!	!LO:DY:rj
.	4d'/	p
(8c\L	(8e/L	.
8d\	8f#/	.
8e\	8g/	.
8f#\J	8a/J)	.
=3	=3	=3
(4g\)	(4b\	.
4f#\	4dd\	.
4e\	4cc\	.
4d\	4b\	.
=4	=4	=4
2c\	4a/	>
.	4b/	.
2c#X\	4a/	.
.	4g/)	]]
=5	=5	=5
*^	*^	*
*	*	*	*	*^
2.ryy	4d\	(2f#/	2r	.	.
.	4cn\	.	.	.	.
.	4B\)	4g/	4r	.	.
!	!	!	!	!LO:DY:b=2	!LO:DY:a
[4d/	(4D\	4a/	4f#\	f	f
*	*	*	*	*v	*v
=6	=6	=6	=6	=6
1d/]	4GG\	4b/	2g\	.
.	4AA\	4cc/	.	.
.	8D\L	2a^/)	2f#\	.
.	8C\	.	.	.
.	8BB\	.	.	.
.	8AA\J)	.	.	.
*v	*v	*	*	*
*	*v	*v	*
=7	=7	=7
!	!	!LO:DY:b=2:rj
4GG'/	1r	f
4D'\	.	.
(8E\L	.	.
8F#\	.	.
8G\	.	.
8A\J	.	.
=8	=8	=8
2B\)	4r	.
!	!	!LO:DY:rj
.	4d'/	f
(8c\L	(8e/L	.
8d\	8f#/	.
8e\	8g/	.
8f#\J	8a/J	.
!!LO:LB:g=original
=9	=9	=9
4g\)	4b\)	.
(4f#\	(4dd\	.
4e\	4cc\	.
4d\	4b\	.
=10	=10	=10
2c\	4a/	>
.	4b/	.
2c#X\	4a/	.
.	4g/)	]]
=11	=11	=11
*^	*^	*
!	!	!	!	!LO:DY:a
2r	4d\	(2f#/	2r	p
.	4cn\	.	.	.
4r	4B\)	4g/	4r	.
4c/	4A\	4cc/	4e\	.
=12	=12	=12	=12	=12
2c/	2D\	4a/	2f#\	>
.	.	4b/	.	.
2B/	2GG;\	2g;/)	2g\	]]
*v	*v	*	*	*
*	*v	*v	*
=13	=13	=13
!LO:TX:b:i:t=Man.	!	!LO:DY:b=2:rj
(4BB/	1r	fp
4F#\	.	.
4B\	.	.
4A\	.	.
=14	=14	=14
!	!LO:TX:t=P:problem:pf się nie wyświetla	!
2.G\	4r	pf
.	(4B/	.
.	4b/	.
4F#\)	4a/	.
=15	=15	=15
(>4E\	2.g/	.
4B\	.	.
4e\	.	.
4d\	4g#X/)	.
=16	=16	=16
2c\	(4a/	<
.	4ee\	.
2c#X\)	4aa\	.
.	4gg\	[[
=17	=17	=17
4d\	1ff#\)	>]
4a>\	.	.
4dd>\	.	.
4ccn>\	.	.
=18	=18	=18
4b>\	(4gg/	ff <
4a>\	4ff#/	.
4g>\	4ee/	.
4b>\	4dd#X/)	[[
!!LO:LB:g=original
=19	=19	=19
4cc>\	(4ee/	.
4b>\	4ddn/	>
4a>\	4cc/	.
4g>\	4b/)	]]
=20	=20	=20
*^	*^	*
(4f#/	1r	(4dd/	4a\	.
4e/	.	4cc/	4g\	.
4d/	.	4b/	4f#\	.
4c/	.	4a/	4e\	.
=21	=21	=21	=21	=21
!	!	!	!	!LO:DY:b=2:rj
1d/)	(4B\	4dd/	4.g\	f
.	4A\	4cc/	.	.
.	.	.	8f#\	.
.	4G\	2b/)	2g\	.
.	4F#\	.	.	.
=22	=22	=22	=22	=22
(4c/	4E\	(4cc/	2.g\	p
4d/	4D\	4b/	.	.
4e/	4C\	2a/	.	.
8d/L	4D\)	.	4f#\	.
8c/J)	.	.	.	.
*	*	*v	*v	*
=23	=23	=23	=23
[1B/	(4G\	[1g/ [1d/)	pp
.	4D\	.	.
.	4BB\	.	.
.	4D\	.	.
=24	=24	=24	=24
*	*	*^	*
2.B/]	2.GG\)	2.g/]	2.d\]	.
4r;	4ryy	4r;	4ryy	.
*v	*v	*	*	*
*	*v	*v	*
=25||	=25||	=25||
*k[b-e-]	*k[b-e-]	*
!LO:TX:t=P:problem:znaki [Fn BB- E-]	!LO:TX:t=P:problem:znaki [ffn b- e-]	!
1r	(>4b-/	p
.	4a/	.
.	4g/	.
.	4d/	.
=26	=26	=26
!LO:TX:b:i:t=Man.	!	!
(<(4c\	1e-/^)	.
4B-\	.	.
4A\	.	.
4G\	.	.
=27	=27	=27
1F#X\)	(4d/	.
.	4a/	.
.	4dd\	.
.	4cc\	.
=28	=28	=28
4G\	4b-\	.
4A\	4a/	.
2B-\)	2g/)	.
!!LO:LB:g=original
=29	=29	=29
(1B-\	(4gg\	f
.	4ffX\	.
.	4ee-\	.
.	4dd\	.
=30	=30	=30
2c\	4ffX\	.
.	4ee-\	.
4d\	4dd\	.
4e-\	4cc\	.
=31	=31	=31
4d\	4b-\	.
4c\	4a/	.
4B-\	4g/	.
8A\L	4f#X/	.
8D\J	.	.
=32	=32	=32
4BB-/	1g/)	.
4AA/	.	.
2GG/)	.	.
=33	=33	=33
(1FF#X/	(4a/	fp
.	4d/	.
.	4dd\	.
.	4cc\	.
=34	=34	=34
4GG/	4b-\	.
4AA/	4a/	.
4BB-/	4g/	.
4BBn/)	4fn/)	.
=35	=35	=35
(2.C/	(4e-/	.
.	4g/	.
.	4ee-\	.
4D\	4dd\	.
=36	=36	=36
1E-\	4cc\	.
.	4b-\	.
.	4a/	.
.	4g/	.
=37	=37	=37
4D\	1f#X/)	<[
4A\	.	.
4d\	.	.
4c\)	.	.
=38	=38	=38
(4B-\	(4g/	.
4A\	4a/	.
4G\	4b-\	.
4F\)	4bn\)	.
!!LO:LB:g=original
=39	=39	=39
(4E-\	(4cc\	.
4D\	4dd\	<
4C/	4ee-\	.
4E-\	4cc\	.
=40	=40	=40
4D\	4b-\	.
8d\L	4a/	.
8c\J	.	.
4B-\	4g/	[
4A\	4f#X/	.
=41	=41	=41
*	*^	*
4B-\	4g/	2r	.
4d\	4a/	.	.
!	!	!	!LO:DY:rj
4g\	4b-/	2g\	f <
4e-\	4cc#X/	.	[[
*	*v	*v	*
=42	=42	=42
1d\;)	1dd/ 1f#X/;)	> ]]
=43||	=43||	=43||
*k[f#]	*k[f#]	*
!LO:TX:t=P:problem:znaki [BBn En F#]	!LO:TX:t=P:problem:znaki [bn een ff#]	!LO:DY:b=2
4GG'/	1r	p
4D'\	.	.
(8E\L	.	.
8F#\	.	.
8G\	.	.
8A\J	.	.
=44	=44	=44
2B\)	4r	.
!	!	!LO:DY:rj
.	4d'/	p
(8c\L	(8e/L	.
8d\	8f#/	.
8e\	8g/	.
8f#\J	8a/J	.
=45	=45	=45
4g\)	4b\)	.
(4f#\	(4dd\	.
4e\	4cc\	.
4d\	4b\	.
=46	=46	=46
*	*	*^
2c\	4a/	>	.
.	4b/	.	.
2c#X\	4a/	.	.
.	4g/)	.	.
=47	=47	=47	=47
*^	*^	*	*
2.ryy	4d\	(2f#/	2r	.	.
.	4cn\	.	.	]	.
.	4B\)	4g/	4r	.	.
!LO:TX:b:i:t=Ped.	!	!	!	!LO:DY:b=2:rj	!LO:DY:rj
[4d/	4D\	4a/)	4f#\	f	f
*	*	*	*	*v	*v
!!LO:PB:g=original
=48	=48	=48	=48	=48
1d/]	(4GG\	(4b/	2g\	.
.	4AA\	4cc/	.	.
.	8D\L	2a^/)	2f#\	.
.	8C\	.	.	.
.	8BB\	.	.	.
.	8AA\J)	.	.	.
*v	*v	*	*	*
*	*v	*v	*
=49	=49	=49
!LO:TX:b:i:t=Man.	!	!LO:DY:rj:b=2
4GG'/	1r	f
4D'\	.	.
(8E\L	.	.
8F#\	.	.
8G\	.	.
8A\J	.	.
=50	=50	=50
2B\)	4r	.
!	!	!LO:DY:rj
.	4d/	f
(8c\L	(8e/L	<
8d\	8f#/	.
8e\	8g/	.
8f#\J	8a/J	[[
=51	=51	=51
4g\)	4b\)	.
(4f#\	(4dd\	.
4e\	4cc\	.
4d\	4b\	.
=52	=52	=52
2c\	4a/	>
.	4b/	.
2c#X\)	4a/	.
.	4g/)	]]
=53	=53	=53
*^	*^	*
!	!	!	!	!LO:DY:a
2.ryy	(4d\	(2f#/	2r	p
.	4cn\	.	.	.
.	4B\	4g/	4r	.
4c/	4A\	4cc/	4e\	.
=54	=54	=54	=54	=54
2c/	2D\	4a/	2f#\	.
.	.	4b/	.	.
2B/)	2GG;\	2g;/)	2g\	.
*v	*v	*	*	*
*	*v	*v	*
=55	=55	=55
!LO:TX:b:i:t=Man.	!	!LO:DY:b=2:rj
(4BB/	1r	fp
4F#\	.	.
4B\	.	.
4A\	.	.
=56	=56	=56
2.G\	4r	.
.	(4B/	.
.	4b/	.
4F#\)	4a/	.
!!LO:LB:g=original
=57	=57	=57
(4E\	2.g/	.
4B\	.	.
4e\	.	.
4d\	4g#X/)	.
=58	=58	=58
2c\	(4a/	.
.	4ee\	.
2c#X\)	4aa\	.
.	4gg\	.
=59	=59	=59
4d\	1ff#\)	.
4a>\	.	.
4dd>\	.	.
4ccn>\	.	.
=60	=60	=60
4b>\	(4gg/	<
4a>\	4ff#/	.
4g>\	4ee/	.
4b>\	4dd#X/	[[
=61	=61	=61
4cc>\	4ee/	>
4b>\	4ddn/	.
4a>\	4cc/	.
4g>\	4b/)	]]
=62	=62	=62
*^	*^	*
(4f#/	1r	(4dd/	4a\	.
4e/	.	4cc/	4g\	.
4d/	.	4b/	4f#\	.
4c/	.	4a/	4e\	.
=63	=63	=63	=63	=63
!LO:TX:b:i:t=Ped.	!	!	!	!LO:DY:b=2:rj
1d/)	(4B\	4dd/	4.g\	f
.	4A\	4cc/	.	.
.	.	.	8f#\	.
.	4G\	2b/)	2g\	.
.	4F#\	.	.	.
=64	=64	=64	=64	=64
(4c/	4E\	(4cc/	2.g\	.
4d/	4D\	4b/	.	.
4e/	4C\	2a/	.	.
8d/L	8D\L	.	4f#\	.
8c/J	8D#X\J	.	.	.
=65	=65	=65	=65	=65
2.B/)	2.E\)	2.g/Z)	2.e\	.
!	!	!	!	!LO:DY:a
4B/	(4Dn\	(4g#X/	([4e\	fp
=66	=66	=66	=66	=66
4c/	4C\	4a/	2.e\]	.
4B-X/	4C#X\	4gn/	.	.
2A/	2D\	2f#/	.	.
.	.	.	8d\L	.
.	.	.	8c\J))	.
!!LO:LB:g=original
=67	=67	=67	=67	=67
!	!	!	!	!LO:DY:a
4G/	[1GG\	[1b/	(4B\	pp
4E/	.	.	4c\	.
4D/	.	.	4B\	.
4C/	.	.	4A\	.
*	*	*v	*v	*
=68	=68	=68	=68
1D/	1GG\;])	1b/] 1B/;)	.
*v	*v	*	*
=69||	=69||	=69||
!!!OMD:Allegro.
!	!	!LO:DY:b=2:rj
4GG'/	1r	f
4D'\	.	.
(8E\L	.	.
8F#\	.	.
8G\	.	.
8A\J	.	.
=70	=70	=70
2B\)	4r	.
!	!	!LO:DY:rj
.	4d/	f
(8c\L	(8e/L	.
8d\	8f#/	.
8e\	8g/	.
8f#\J	8a/J	.
=71	=71	=71
!	!	!LO:DY:rj
4g'\)	4b'\)	ff
4f#'\	4dd'\	.
*clefG2	*	*
4cc\	(8ee\L	<
.	8ff#\	.
8b\L	8gg\	.
8dd\J	8aa\J)	[[
=72	=72	=72
4gg\	4bb\	>
4ff#\ 4dd\	4ddd\ 4aa\	.
2gg\ 2cc;\	2eee\ 2ccc;\	]]
*clefF4	*	*
=73	=73	=73
!!!OMD:Lento.
*^	*^	*
!LO:TX:b:i:t=Ped.	!	!	!	!
2c/	2D\	(4a/	2f#\	pp
.	.	4b/)	.	.
2B/	[2GG\	2g^/	2g\	.
*	*	*v	*v	*
=74	=74	=74	=74
!	!	!LO:TX:b:i:t=molto rit.	!
(2A/ 2F#/	1GG\_	(4c/	.
.	.	4d/	.
2G/)	.	2B/	.
=75	=75	=75	=75
*	*^	*	*
!	!	!LO:TX:i:t=perdendosi	!	!LO:DY:rj
(2G/ 2E-X/	1GG\_	2ryy	1A/	pp >]
2F#/	.	4D/	.	.
.	.	4C/	.	.
*v	*v	*v	*	*
=76	=76	=76
1D/ 1BB/ 1GG/;<])	1G/;)	]
==	==	==
*-	*-	*-
!!!system-decoration: {(s1,s2)}
!!!EED: Andrzej Borzym
!!!EST: 2021-08-09
!!!RDF**kern: > = above
!!!RDF**kern: < = below
!!!RDF**kern: Z = caesura
!!!ENC: Andrzej Gręziak
!!!END: 2021-07-27
